X: 215
T: Rita Baker's Polka
B: australian dance tunes
M:2/4
L:1/8
R: Polka
Q: 1/4=100
K:D
V:1 
|:DF AB/2A/2|FA A2|DF AB/2A/2|FE E2|DF AB/2A/2|FA A2|dd ed/2e/2|fd d>B:|!
|:Ad f>e|dB A>A|Ad cd|fe e2|Ad f>e|dB A>A|Ad cd|ed d2:|!
% abcbook-tune_id 62a0785023c193ae503994b9


% abcbook-boost 0
% abcbook-tablature 
% abcbook-transpose 
% abcbook-lastupdated 1654683750364
% abcbook-soundfonts 
% abcbook-repeats 1


